X: 6783
T: Chapel Bell, The
R: jig
M: 6/8
K: Edorian
|:BcB EGA|B2e dcd|~e3 BAF|A2e dBA|
~B3 EGA|B2e dcd|~e3 B2f|1 gfd eGA:|2 gfd e3||
|:~B3 e2e|de f4-|f2d cBA|Bcd dBA|
~B3 e2e|def f2e|fed B2f|1 gfd e3:|2 gfd eGA||

